packages/icons/src/components/Icon/assets/small-outline/weather-night.svg

<svg width="16" height="16" viewBox="0 0 16 16" fill="none" xmlns="http://www.w3.org/2000/svg">
<path d="M11.5058 2.52798C11.6808 2.53292 11.7526 2.75484 11.6137 2.86135L10.5629 3.6671C10.5017 3.714 10.4759 3.79376 10.4978 3.86762L10.8752 5.13667C10.9252 5.30474 10.7361 5.44222 10.5916 5.34281L9.50086 4.59213C9.43739 4.54845 9.35355 4.54845 9.29007 4.59213L8.1993 5.34281C8.05486 5.44222 7.86573 5.30474 7.91571 5.13667L8.2931 3.86762C8.31507 3.79376 8.28919 3.714 8.22803 3.6671L7.17723 2.86135C7.03834 2.75484 7.11016 2.53292 7.28511 2.52798L8.61104 2.49057C8.68789 2.4884 8.75548 2.43916 8.78109 2.36667L9.22018 1.12397C9.27858 0.958675 9.51235 0.958675 9.57076 1.12397L10.0098 2.36667C10.0355 2.43916 10.103 2.4884 10.1799 2.49057L11.5058 2.52798ZM13.669 6.81204C13.8446 6.8163 13.9169 7.03927 13.7772 7.14575L13.284 7.52165C13.2225 7.56851 13.1964 7.64852 13.2185 7.7226L13.397 8.32156C13.4471 8.48966 13.2579 8.62724 13.1134 8.5278L12.5994 8.17401C12.5359 8.13032 12.4521 8.13032 12.3886 8.17401L11.8745 8.5278C11.73 8.62724 11.5409 8.48966 11.5909 8.32156L11.7694 7.7226C11.7915 7.64852 11.7654 7.56851 11.704 7.52165L11.2108 7.14575C11.0711 7.03927 11.1434 6.8163 11.319 6.81204L11.9383 6.79701C12.0154 6.79513 12.0834 6.74586 12.1091 6.67317L12.3187 6.08079C12.3772 5.91559 12.6108 5.91559 12.6692 6.08079L12.8788 6.67317C12.9046 6.74586 12.9725 6.79513 13.0496 6.79701L13.669 6.81204Z" fill="black"/>
<path fill-rule="evenodd" clip-rule="evenodd" d="M6.34002 2.71519C6.49625 2.87142 6.54269 3.10651 6.45761 3.3104C6.19306 3.9444 6.04668 4.64061 6.04668 5.37238C6.04668 8.33195 8.44589 10.7312 11.4055 10.7312C12.1372 10.7312 12.8334 10.5848 13.4674 10.3202C13.6713 10.2351 13.9064 10.2816 14.0626 10.4378C14.2189 10.594 14.2653 10.8291 14.1802 11.033C13.2085 13.3617 10.9095 15 8.22652 15C4.66501 15 1.77783 12.1128 1.77783 8.55131C1.77783 5.86835 3.41615 3.5693 5.74482 2.59761C5.94871 2.51253 6.1838 2.55897 6.34002 2.71519ZM5.05789 4.22913C3.72936 5.20478 2.86775 6.77783 2.86775 8.55131C2.86775 11.5109 5.26695 13.9101 8.22652 13.9101C10 13.9101 11.5731 13.0485 12.5487 11.7199C12.1774 11.7864 11.7954 11.8211 11.4055 11.8211C7.84394 11.8211 4.95676 8.93389 4.95676 5.37238C4.95676 4.98247 4.99143 4.60039 5.05789 4.22913Z" fill="black"/>
</svg>

<svg xmlns="http://www.w3.org/2000/svg" width="16" height="16" fill="none" viewBox="0 0 16 16">
    <path fill="#000" d="M11.506 2.528a.186.186 0 0 1 .108.333l-1.051.806a.19.19 0 0 0-.065.2l.377 1.27a.186.186 0 0 1-.283.206L9.5 4.593a.19.19 0 0 0-.21 0l-1.092.75a.186.186 0 0 1-.283-.206l.377-1.27a.19.19 0 0 0-.065-.2l-1.05-.806a.186.186 0 0 1 .107-.333l1.326-.037a.19.19 0 0 0 .17-.124l.44-1.243a.186.186 0 0 1 .35 0l.439 1.243a.19.19 0 0 0 .17.124zm2.163 4.284a.186.186 0 0 1 .108.334l-.493.376a.19.19 0 0 0-.066.2l.179.6a.186.186 0 0 1-.284.206l-.514-.354a.19.19 0 0 0-.21 0l-.514.354a.186.186 0 0 1-.284-.206l.178-.6a.19.19 0 0 0-.065-.2l-.493-.376a.186.186 0 0 1 .108-.334l.62-.015a.19.19 0 0 0 .17-.124l.21-.592a.186.186 0 0 1 .35 0l.21.592a.19.19 0 0 0 .17.124z"/>
    <path fill="#000" fill-rule="evenodd" d="M6.34 2.715a.545.545 0 0 1 .118.595 5.359 5.359 0 0 0 7.01 7.01.545.545 0 0 1 .712.713A6.45 6.45 0 0 1 1.778 8.551a6.45 6.45 0 0 1 3.967-5.953.545.545 0 0 1 .595.117M5.058 4.23a5.359 5.359 0 1 0 7.49 7.49 6.45 6.45 0 0 1-7.49-7.49" clip-rule="evenodd"/>
</svg>
